X:901
T:Twickenham Ferry
T:Tune
M:3/4
L:1/4
K:G
P:A
d|"G"g>fe|d>cB|"C"ABG|"D7"FED|"G"G>AB|"Bm"d>eB|"Am"deB|"D7"def|
"Em"g>fe|"G"d>cB|"C"ABG|"D7"FED|"Em"G>ED|"Am"GED|"D7"GED|"G"G2||
P:B
B|"Em"e>fe|B>^AB|"Bm"d>ed|d>cB|"Em"e>fe|B>^AB|"Bm"d>ed|"D7"def|
"Em"g>fe|"G"d>cB|"C"ABG|"D7"FED|"Em"G>ED|"Am"GED|"D7"GED|"G"G2||
T:Harmony
P:A
z|"G"zG/F/ G/A/|B>cd|"C"cde|"D7"d2c|"G"B>AG|"Bm"G>AB|"Am"c>B A/G/|"D7"A2F|
"G"GG/F/ G/A/|B>cd|"C"cde|"D7"d2c|"G"B>AG|"Am"c>BA|"D7"GAF|"G"G2||
P:B
F|"Em"EE/D/ E/F/|GFE|"Bm"FF/E/ F/G/|AGF|"Em"GG/F/ G/A/|BAG|"Bm"ABc|"D7"dzD|
"G"GG/F/G/ A/|B>cd|"C"cde|"D7"d2c|"G"B>AG|"Am"c>BA|"D7"GAF|"G"G2||



%%newpage
%%textfont * 20
%%text W2 (2.0) p1
%%textfont * 12

